X:2
T:Kelvin Grove
C:arr. Carlo Minasi
M:C
L:1/8
B:Chappell's One Hundred Scotch Melodies
B:Arranged for the Concertina by Carlo Minasi
Q:"Allegretto  "1/4=120
Z:Peter Dunk 2012
K:G
!p!(GA)|(BdAB) (GFED)|(E2 [A2^C2][A2F2D2]) (GA)|\
(BdAB) (GFED)|(E2[G2E2C2][G2D2B,2]) (AB)|
([cGE]>Bcd) [e2c2G2] (Bc)|([dGB,G,]BAG) [A2F2D2]"_a tempo."(GA)|\
([BG]d[AFD]B) ([GB,][FD][EC][DB,])|([E2C2][G2B,2][G2B,2])|]

